X: 41192
T: TripTo Eriskay
R: jig
M: 6/8
K: Dmajor
|:DFA d2 B|BAF ABB|DFA d2 e|fgf edB|
DFA d2 B|BAF ABB|dfa eff|dBA B3:|
|:a2 a afe|fae fad|b2 b baf|a2 f/a/ e3|
B2 d dBA|Bdd e2 f|a2 f eff|aef d3:|

